Newaita-dark/apps/32/mongodb-compass.svg

<svg height="32pt" viewBox="0 0 32 32" width="32pt" xmlns="http://www.w3.org/2000/svg" xmlns:xlink="http://www.w3.org/1999/xlink"><linearGradient id="a"><stop offset="0" stop-opacity=".313726"/><stop offset=".222222" stop-opacity=".27451"/><stop offset="1" stop-opacity="0"/></linearGradient><radialGradient id="b" cx="450.908936" cy="189.579361" gradientTransform="matrix(.00000017 -.0683658 -.140638 -.00000009 42.869346 59.315508)" gradientUnits="userSpaceOnUse" r="21.166656" xlink:href="#a"/><radialGradient id="c" cx="450.908936" cy="189.579361" gradientTransform="matrix(-.00000017 .0683658 .140638 .00000009 -11.116314 -2.916897)" gradientUnits="userSpaceOnUse" r="21.166656" xlink:href="#a"/><radialGradient id="d" cx="450.908936" cy="189.579361" gradientTransform="matrix(-.00000017 -.0683658 .140638 -.00000009 -11.116314 59.315508)" gradientUnits="userSpaceOnUse" r="21.166656" xlink:href="#a"/><radialGradient id="e" cx="450.908936" cy="189.579361" gradientTransform="matrix(.00000017 .0683658 -.140638 .00000009 42.869344 -2.916898)" gradientUnits="userSpaceOnUse" r="21.166656" xlink:href="#a"/><linearGradient id="f" gradientTransform="matrix(.0133601 0 0 .0546927 12.465385 15.428569)" gradientUnits="userSpaceOnUse" x1="255.323059" x2="255.323044" y1="233.5" y2="254.666656"><stop offset="0" stop-opacity=".27451"/><stop offset="1" stop-opacity="0"/></linearGradient><linearGradient id="g" gradientUnits="userSpaceOnUse" x1="15.876524" x2="15.876524" y1="28.033934" y2="2.89610399997"><stop offset="0" stop-color="#424242"/><stop offset="1" stop-color="#616161"/></linearGradient><linearGradient id="h"><stop offset="0" stop-color="#66bb6a"/><stop offset="1" stop-color="#81c784"/></linearGradient><linearGradient id="i" gradientUnits="userSpaceOnUse" x1="15.876524" x2="15.876524" xlink:href="#h" y1="28.033934" y2="2.89610399997"/><linearGradient id="j" gradientUnits="userSpaceOnUse" x1="254" x2="254" y1="127.666656" y2="74.75"><stop offset="0" stop-color="#bdbdbd"/><stop offset="1" stop-color="#e0e0e0"/></linearGradient><linearGradient id="k" gradientUnits="userSpaceOnUse" x1="15.21500250003" x2="15.21500250003" y1="18.77262850002" y2="7.52675699998"><stop offset="0" stop-color="#9ccc65"/><stop offset="1" stop-color="#aed581"/></linearGradient><linearGradient id="l" gradientUnits="userSpaceOnUse" x1="17.8610895" x2="17.8610895" xlink:href="#h" y1="18.77262850002" y2="7.52675699998"/><path d="m16.539062 28.199219h2.644532v-1.15625h-2.644532zm0 0" fill="url(#b)"/><path d="m15.214844 28.199219h-2.644532v1.15625h2.644532zm0 0" fill="url(#c)"/><path d="m15.214844 28.199219h-2.644532v-1.15625h2.644532zm0 0" fill="url(#d)"/><path d="m16.539062 28.199219h2.644532v1.15625h-2.644532zm0 0" fill="url(#e)"/><path d="m15.214844 27.910156h1.324218v1.445313h-1.324218zm0 0" fill="url(#f)"/><path d="m15.875 2.894531c8.601562 0 11.910156 1.984375 11.910156 3.972657 0 9.921874-7.277344 21.167968-11.910156 21.167968-4.628906 0-11.90625-11.246094-11.90625-21.167968 0-1.988282 3.96875-3.972657 11.90625-3.972657zm0 0" fill="url(#g)"/><path d="m15.875 2.894531c-7.9375 0-11.90625 1.984375-11.90625 3.96875 0 9.925781 7.277344 21.171875 11.90625 21.171875 4.632812 0 11.910156-11.246094 11.910156-21.171875 0-1.984375-3.308594-3.96875-11.910156-3.96875zm0 1.324219c7.703125 0 10.664062 1.777344 10.664062 3.554688 0 8.886718-6.515624 18.953124-10.664062 18.953124-4.144531 0-10.660156-10.066406-10.660156-18.953124 0-1.777344 3.554687-3.554688 10.660156-3.554688zm0 0" fill="url(#i)"/><path d="m27.777344 6.714844c-.207032 9.8125-7.339844 20.730468-11.902344 20.730468-4.558594 0-11.6875-10.910156-11.902344-20.722656 0 .042969-.003906.082032-.003906.121094 0 9.921875 7.277344 21.167969 11.90625 21.167969 4.632812 0 11.910156-11.246094 11.910156-21.167969 0-.042969-.003906-.085938-.007812-.128906zm0 0" fill-opacity=".235294"/><path d="m15.875 2.894531c-7.9375 0-11.90625 1.984375-11.90625 3.96875 0 .089844 0 .175781.003906.261719.089844-1.960938 4.058594-3.898438 11.902344-3.898438 8.492188 0 11.824219 1.933594 11.90625 3.894532.003906-.085938.003906-.171875.003906-.257813 0-1.984375-3.308594-3.96875-11.910156-3.96875zm0 0" fill="#fff" fill-opacity=".392157"/><path d="m15.875 8.179688s-4.953125 3.902343-4.445312 7.339843c.355468 2.425781 2.660156 3.40625 3.804687 3.75-.011719.050781-.019531.101563-.019531.15625v1.984375c0 .367188.296875.664063.660156.664063.367188 0 .664062-.296875.664062-.664063v-1.984375c0-.054687-.007812-.105469-.019531-.15625 1.144531-.34375 3.449219-1.324219 3.804688-3.75.507812-3.4375-4.449219-7.339843-4.449219-7.339843zm0 0" fill-opacity=".313726"/><path d="m253.975747 74.722333c5.874439 0 10.623985 4.749546 10.623985 10.623985v31.746969c0 5.811945-4.749546 10.561491-10.623985 10.561491-5.811945 0-10.561492-4.749546-10.561492-10.561491v-31.746969c0-5.874439 4.749547-10.623985 10.561492-10.623985zm0 0" fill="url(#j)" stroke="#78909c" stroke-linecap="round" stroke-linejoin="round" stroke-width="2" transform="matrix(.062506 0 0 .062506 0 13.438783)"/><path d="m15.875 2.800781c-3.976562 0-6.960938.496094-8.960938 1.246094-1 .375-1.753906.816406-2.265624 1.292969-.507813.476562-.773438.996094-.773438 1.523437 0 4.984375 1.824219 10.289063 4.230469 14.355469 1.203125 2.03125 2.550781 3.753906 3.894531 4.972656s2.679688 1.9375 3.875 1.9375 2.535156-.71875 3.878906-1.9375 2.691406-2.941406 3.894532-4.972656c2.40625-4.066406 4.230468-9.371094 4.230468-14.355469 0-.519531-.222656-1.042969-.679687-1.519531-.457031-.480469-1.148438-.917969-2.109375-1.292969-1.921875-.753906-4.90625-1.25-9.214844-1.25zm0 .1875c4.292969 0 7.261719.5 9.144531 1.234375.945313.371094 1.613281.796875 2.046875 1.25.429688.453125.625.921875.625 1.390625 0 4.941407-1.816406 10.21875-4.207031 14.257813-1.195313 2.019531-2.53125 3.730468-3.855469 4.929687-1.324218 1.203125-2.632812 1.890625-3.753906 1.890625-1.117188 0-2.425781-.6875-3.75-1.890625-1.324219-1.199219-2.664062-2.910156-3.859375-4.929687-2.390625-4.039063-4.203125-9.316406-4.203125-14.257813 0-.464843.230469-.933593.714844-1.386719.484375-.453124 1.21875-.882812 2.203125-1.253906 1.96875-.738281 4.933593-1.234375 8.894531-1.234375zm0 1.136719c-3.558594 0-6.234375.445312-8.027344 1.117188-.898437.335937-1.574218.730468-2.03125 1.15625-.457031.429687-.695312.898437-.695312 1.375 0 4.464843 1.632812 9.214843 3.789062 12.855468 1.078125 1.820313 2.285156 3.363282 3.488282 4.457032 1.203124 1.089843 2.402343 1.734374 3.476562 1.734374s2.277344-.644531 3.480469-1.734374c1.203125-1.09375 2.410156-2.636719 3.488281-4.457032 2.15625-3.640625 3.789062-8.390625 3.789062-12.855468 0-.46875-.199218-.941407-.609374-1.371094-.410157-.429688-1.035157-.824219-1.894532-1.160156-1.71875-.671876-4.394531-1.117188-8.253906-1.117188zm0 .1875c3.84375 0 6.5.445312 8.1875 1.105469.839844.328125 1.441406.710937 1.824219 1.113281.386719.40625.558593.824219.558593 1.242188 0 4.417968-1.625 9.144531-3.761718 12.761718-1.070313 1.808594-2.269532 3.335938-3.453125 4.410156-1.1875 1.074219-2.355469 1.6875-3.355469 1.6875-.996094 0-2.167969-.613281-3.351562-1.6875-1.183594-1.074218-2.382813-2.601562-3.453126-4.410156-2.140624-3.617187-3.761718-8.34375-3.761718-12.761718 0-.414063.203125-.832032.636718-1.238282.429688-.402344 1.085938-.789062 1.96875-1.117187 1.757813-.660157 4.417969-1.105469 7.960938-1.105469zm0 0" fill="#212121"/><path d="m15.875 7.527344s-4.953125 3.902344-4.445312 7.335937c.476562 3.246094 4.445312 3.910157 4.445312 3.910157zm0 0" fill="url(#k)"/><path d="m15.875 7.527344s4.957031 3.902344 4.449219 7.335937c-.480469 3.246094-4.449219 3.910157-4.449219 3.910157zm0 0" fill="url(#l)"/><path d="m15.875 7.527344s-4.632812 3.648437-4.480469 6.996094c.148438-3.25 4.480469-6.664063 4.480469-6.664063s4.335938 3.414063 4.480469 6.664063c.15625-3.347657-4.480469-6.996094-4.480469-6.996094zm-.660156 11.410156v.164062c0-.054687.007812-.105468.019531-.15625-.007813-.003906-.011719-.003906-.019531-.007812zm1.324218 0c-.007812.003906-.015624.003906-.019531.007812.011719.050782.019531.101563.019531.15625zm0 0" fill="#fff" fill-opacity=".588235"/><path d="m959.908384 455.153409s-299.498974 235.961731-268.793244 443.579711c21.494012 146.678914 160.85079 206.200792 230.056783 226.750012-.708593 3.070573-1.180989 6.377344-1.180989 9.684115v119.988548c0 22.202605 17.951042 39.91745 39.91745 39.91745 22.202605 0 40.153648-17.714845 40.153648-39.91745v-119.988548c0-3.306771-.472396-6.613542-1.18099-9.684115 69.205993-20.54922 208.562771-80.071098 230.056783-226.750012 30.705731-207.61798-269.029441-443.579711-269.029441-443.579711zm0 0" fill="none" stroke="#212121" stroke-linecap="round" stroke-linejoin="round" stroke-width="11.338583" transform="scale(.016538)"/></svg>

<?xml version="1.0" encoding="UTF-8"?>
<svg xmlns="http://www.w3.org/2000/svg" xmlns:xlink="http://www.w3.org/1999/xlink" width="32pt" height="32pt" viewBox="0 0 32 32" version="1.1">
<defs>
<radialGradient id="radial0" gradientUnits="userSpaceOnUse" cx="450.908936" cy="189.579361" fx="450.908936" fy="189.579361" r="21.166656" gradientTransform="matrix(0.00000017417,-0.0683658,-0.140638,-0.0000000888462,42.869346,59.315508)">
<stop offset="0" style="stop-color:rgb(0%,0%,0%);stop-opacity:0.313726;"/>
<stop offset="0.222222" style="stop-color:rgb(0%,0%,0%);stop-opacity:0.27451;"/>
<stop offset="1" style="stop-color:rgb(0%,0%,0%);stop-opacity:0;"/>
</radialGradient>
<radialGradient id="radial1" gradientUnits="userSpaceOnUse" cx="450.908936" cy="189.579361" fx="450.908936" fy="189.579361" r="21.166656" gradientTransform="matrix(-0.00000017417,0.0683658,0.140638,0.0000000888462,-11.116314,-2.916897)">
<stop offset="0" style="stop-color:rgb(0%,0%,0%);stop-opacity:0.313726;"/>
<stop offset="0.222222" style="stop-color:rgb(0%,0%,0%);stop-opacity:0.27451;"/>
<stop offset="1" style="stop-color:rgb(0%,0%,0%);stop-opacity:0;"/>
</radialGradient>
<radialGradient id="radial2" gradientUnits="userSpaceOnUse" cx="450.908936" cy="189.579361" fx="450.908936" fy="189.579361" r="21.166656" gradientTransform="matrix(-0.00000017417,-0.0683658,0.140638,-0.0000000888462,-11.116314,59.315508)">
<stop offset="0" style="stop-color:rgb(0%,0%,0%);stop-opacity:0.313726;"/>
<stop offset="0.222222" style="stop-color:rgb(0%,0%,0%);stop-opacity:0.27451;"/>
<stop offset="1" style="stop-color:rgb(0%,0%,0%);stop-opacity:0;"/>
</radialGradient>
<radialGradient id="radial3" gradientUnits="userSpaceOnUse" cx="450.908936" cy="189.579361" fx="450.908936" fy="189.579361" r="21.166656" gradientTransform="matrix(0.00000017417,0.0683658,-0.140638,0.0000000888462,42.869344,-2.916898)">
<stop offset="0" style="stop-color:rgb(0%,0%,0%);stop-opacity:0.313726;"/>
<stop offset="0.222222" style="stop-color:rgb(0%,0%,0%);stop-opacity:0.27451;"/>
<stop offset="1" style="stop-color:rgb(0%,0%,0%);stop-opacity:0;"/>
</radialGradient>
<linearGradient id="linear0" gradientUnits="userSpaceOnUse" x1="255.323059" y1="233.5" x2="255.323044" y2="254.666656" gradientTransform="matrix(0.0133601,0,0,0.0546927,12.465385,15.428569)">
<stop offset="0" style="stop-color:rgb(0%,0%,0%);stop-opacity:0.27451;"/>
<stop offset="1" style="stop-color:rgb(0%,0%,0%);stop-opacity:0;"/>
</linearGradient>
<linearGradient id="linear1" gradientUnits="userSpaceOnUse" x1="254" y1="233.5" x2="254" y2="-168.666672" gradientTransform="matrix(0.062506,0,0,0.062506,0,13.438783)">
<stop offset="0" style="stop-color:rgb(25.882354%,25.882354%,25.882354%);stop-opacity:1;"/>
<stop offset="1" style="stop-color:rgb(38.039216%,38.039216%,38.039216%);stop-opacity:1;"/>
</linearGradient>
<linearGradient id="linear2" gradientUnits="userSpaceOnUse" x1="254" y1="233.5" x2="254" y2="-168.666672" gradientTransform="matrix(0.062506,0,0,0.062506,0,13.438783)">
<stop offset="0" style="stop-color:rgb(40.000001%,73.333335%,41.568628%);stop-opacity:1;"/>
<stop offset="1" style="stop-color:rgb(50.588238%,78.039217%,51.764709%);stop-opacity:1;"/>
</linearGradient>
<linearGradient id="linear3" gradientUnits="userSpaceOnUse" x1="254" y1="127.666656" x2="254" y2="74.75" >
<stop offset="0" style="stop-color:rgb(74.117649%,74.117649%,74.117649%);stop-opacity:1;"/>
<stop offset="1" style="stop-color:rgb(87.843138%,87.843138%,87.843138%);stop-opacity:1;"/>
</linearGradient>
<linearGradient id="linear4" gradientUnits="userSpaceOnUse" x1="243.416672" y1="85.333336" x2="243.416672" y2="-94.583336" gradientTransform="matrix(0.062506,0,0,0.062506,0,13.438783)">
<stop offset="0" style="stop-color:rgb(61.176473%,80.000001%,39.607844%);stop-opacity:1;"/>
<stop offset="1" style="stop-color:rgb(68.235296%,83.529413%,50.588238%);stop-opacity:1;"/>
</linearGradient>
<linearGradient id="linear5" gradientUnits="userSpaceOnUse" x1="285.75" y1="85.333336" x2="285.75" y2="-94.583336" gradientTransform="matrix(0.062506,0,0,0.062506,0,13.438783)">
<stop offset="0" style="stop-color:rgb(40.000001%,73.333335%,41.568628%);stop-opacity:1;"/>
<stop offset="1" style="stop-color:rgb(50.588238%,78.039217%,51.764709%);stop-opacity:1;"/>
</linearGradient>
</defs>
<g id="surface1">
<path style=" stroke:none;fill-rule:nonzero;fill:url(#radial0);" d="M 16.539062 28.199219 L 19.183594 28.199219 L 19.183594 27.042969 L 16.539062 27.042969 Z M 16.539062 28.199219 "/>
<path style=" stroke:none;fill-rule:nonzero;fill:url(#radial1);" d="M 15.214844 28.199219 L 12.570312 28.199219 L 12.570312 29.355469 L 15.214844 29.355469 Z M 15.214844 28.199219 "/>
<path style=" stroke:none;fill-rule:nonzero;fill:url(#radial2);" d="M 15.214844 28.199219 L 12.570312 28.199219 L 12.570312 27.042969 L 15.214844 27.042969 Z M 15.214844 28.199219 "/>
<path style=" stroke:none;fill-rule:nonzero;fill:url(#radial3);" d="M 16.539062 28.199219 L 19.183594 28.199219 L 19.183594 29.355469 L 16.539062 29.355469 Z M 16.539062 28.199219 "/>
<path style=" stroke:none;fill-rule:nonzero;fill:url(#linear0);" d="M 15.214844 27.910156 L 16.539062 27.910156 L 16.539062 29.355469 L 15.214844 29.355469 Z M 15.214844 27.910156 "/>
<path style=" stroke:none;fill-rule:nonzero;fill:url(#linear1);" d="M 15.875 2.894531 C 24.476562 2.894531 27.785156 4.878906 27.785156 6.867188 C 27.785156 16.789062 20.507812 28.035156 15.875 28.035156 C 11.246094 28.035156 3.96875 16.789062 3.96875 6.867188 C 3.96875 4.878906 7.9375 2.894531 15.875 2.894531 Z M 15.875 2.894531 "/>
<path style=" stroke:none;fill-rule:nonzero;fill:url(#linear2);" d="M 15.875 2.894531 C 7.9375 2.894531 3.96875 4.878906 3.96875 6.863281 C 3.96875 16.789062 11.246094 28.035156 15.875 28.035156 C 20.507812 28.035156 27.785156 16.789062 27.785156 6.863281 C 27.785156 4.878906 24.476562 2.894531 15.875 2.894531 Z M 15.875 4.21875 C 23.578125 4.21875 26.539062 5.996094 26.539062 7.773438 C 26.539062 16.660156 20.023438 26.726562 15.875 26.726562 C 11.730469 26.726562 5.214844 16.660156 5.214844 7.773438 C 5.214844 5.996094 8.769531 4.21875 15.875 4.21875 Z M 15.875 4.21875 "/>
<path style=" stroke:none;fill-rule:nonzero;fill:rgb(0%,0%,0%);fill-opacity:0.235294;" d="M 27.777344 6.714844 C 27.570312 16.527344 20.4375 27.445312 15.875 27.445312 C 11.316406 27.445312 4.1875 16.535156 3.972656 6.722656 C 3.972656 6.765625 3.96875 6.804688 3.96875 6.84375 C 3.96875 16.765625 11.246094 28.011719 15.875 28.011719 C 20.507812 28.011719 27.785156 16.765625 27.785156 6.84375 C 27.785156 6.800781 27.78125 6.757812 27.777344 6.714844 Z M 27.777344 6.714844 "/>
<path style=" stroke:none;fill-rule:nonzero;fill:rgb(100%,100%,100%);fill-opacity:0.392157;" d="M 15.875 2.894531 C 7.9375 2.894531 3.96875 4.878906 3.96875 6.863281 C 3.96875 6.953125 3.96875 7.039062 3.972656 7.125 C 4.0625 5.164062 8.03125 3.226562 15.875 3.226562 C 24.367188 3.226562 27.699219 5.160156 27.78125 7.121094 C 27.785156 7.035156 27.785156 6.949219 27.785156 6.863281 C 27.785156 4.878906 24.476562 2.894531 15.875 2.894531 Z M 15.875 2.894531 "/>
<path style=" stroke:none;fill-rule:nonzero;fill:rgb(0%,0%,0%);fill-opacity:0.313726;" d="M 15.875 8.179688 C 15.875 8.179688 10.921875 12.082031 11.429688 15.519531 C 11.785156 17.945312 14.089844 18.925781 15.234375 19.269531 C 15.222656 19.320312 15.214844 19.371094 15.214844 19.425781 L 15.214844 21.410156 C 15.214844 21.777344 15.511719 22.074219 15.875 22.074219 C 16.242188 22.074219 16.539062 21.777344 16.539062 21.410156 L 16.539062 19.425781 C 16.539062 19.371094 16.53125 19.320312 16.519531 19.269531 C 17.664062 18.925781 19.96875 17.945312 20.324219 15.519531 C 20.832031 12.082031 15.875 8.179688 15.875 8.179688 Z M 15.875 8.179688 "/>
<path style="fill-rule:nonzero;fill:url(#linear3);stroke-width:2;stroke-linecap:round;stroke-linejoin:round;stroke:rgb(47.058824%,56.470591%,61.176473%);stroke-opacity:1;stroke-miterlimit:4;" d="M 253.975747 74.722333 C 259.850186 74.722333 264.599732 79.471879 264.599732 85.346318 L 264.599732 117.093287 C 264.599732 122.905232 259.850186 127.654778 253.975747 127.654778 C 248.163802 127.654778 243.414255 122.905232 243.414255 117.093287 L 243.414255 85.346318 C 243.414255 79.471879 248.163802 74.722333 253.975747 74.722333 Z M 253.975747 74.722333 " transform="matrix(0.062506,0,0,0.062506,0,13.438783)"/>
<path style=" stroke:none;fill-rule:nonzero;fill:rgb(12.941177%,12.941177%,12.941177%);fill-opacity:1;" d="M 15.875 2.800781 C 11.898438 2.800781 8.914062 3.296875 6.914062 4.046875 C 5.914062 4.421875 5.160156 4.863281 4.648438 5.339844 C 4.140625 5.816406 3.875 6.335938 3.875 6.863281 C 3.875 11.847656 5.699219 17.152344 8.105469 21.21875 C 9.308594 23.25 10.65625 24.972656 12 26.191406 C 13.34375 27.410156 14.679688 28.128906 15.875 28.128906 C 17.070312 28.128906 18.410156 27.410156 19.753906 26.191406 C 21.097656 24.972656 22.445312 23.25 23.648438 21.21875 C 26.054688 17.152344 27.878906 11.847656 27.878906 6.863281 C 27.878906 6.34375 27.65625 5.820312 27.199219 5.34375 C 26.742188 4.863281 26.050781 4.425781 25.089844 4.050781 C 23.167969 3.296875 20.183594 2.800781 15.875 2.800781 Z M 15.875 2.988281 C 20.167969 2.988281 23.136719 3.488281 25.019531 4.222656 C 25.964844 4.59375 26.632812 5.019531 27.066406 5.472656 C 27.496094 5.925781 27.691406 6.394531 27.691406 6.863281 C 27.691406 11.804688 25.875 17.082031 23.484375 21.121094 C 22.289062 23.140625 20.953125 24.851562 19.628906 26.050781 C 18.304688 27.253906 16.996094 27.941406 15.875 27.941406 C 14.757812 27.941406 13.449219 27.253906 12.125 26.050781 C 10.800781 24.851562 9.460938 23.140625 8.265625 21.121094 C 5.875 17.082031 4.0625 11.804688 4.0625 6.863281 C 4.0625 6.398438 4.292969 5.929688 4.777344 5.476562 C 5.261719 5.023438 5.996094 4.59375 6.980469 4.222656 C 8.949219 3.484375 11.914062 2.988281 15.875 2.988281 Z M 15.875 4.125 C 12.316406 4.125 9.640625 4.570312 7.847656 5.242188 C 6.949219 5.578125 6.273438 5.972656 5.816406 6.398438 C 5.359375 6.828125 5.121094 7.296875 5.121094 7.773438 C 5.121094 12.238281 6.753906 16.988281 8.910156 20.628906 C 9.988281 22.449219 11.195312 23.992188 12.398438 25.085938 C 13.601562 26.175781 14.800781 26.820312 15.875 26.820312 C 16.949219 26.820312 18.152344 26.175781 19.355469 25.085938 C 20.558594 23.992188 21.765625 22.449219 22.84375 20.628906 C 25 16.988281 26.632812 12.238281 26.632812 7.773438 C 26.632812 7.304688 26.433594 6.832031 26.023438 6.402344 C 25.613281 5.972656 24.988281 5.578125 24.128906 5.242188 C 22.410156 4.570312 19.734375 4.125 15.875 4.125 Z M 15.875 4.3125 C 19.71875 4.3125 22.375 4.757812 24.0625 5.417969 C 24.902344 5.746094 25.503906 6.128906 25.886719 6.53125 C 26.273438 6.9375 26.445312 7.355469 26.445312 7.773438 C 26.445312 12.191406 24.820312 16.917969 22.683594 20.535156 C 21.613281 22.34375 20.414062 23.871094 19.230469 24.945312 C 18.042969 26.019531 16.875 26.632812 15.875 26.632812 C 14.878906 26.632812 13.707031 26.019531 12.523438 24.945312 C 11.339844 23.871094 10.140625 22.34375 9.070312 20.535156 C 6.929688 16.917969 5.308594 12.191406 5.308594 7.773438 C 5.308594 7.359375 5.511719 6.941406 5.945312 6.535156 C 6.375 6.132812 7.03125 5.746094 7.914062 5.417969 C 9.671875 4.757812 12.332031 4.3125 15.875 4.3125 Z M 15.875 4.3125 "/>
<path style=" stroke:none;fill-rule:nonzero;fill:url(#linear4);" d="M 15.875 7.527344 C 15.875 7.527344 10.921875 11.429688 11.429688 14.863281 C 11.90625 18.109375 15.875 18.773438 15.875 18.773438 Z M 15.875 7.527344 "/>
<path style=" stroke:none;fill-rule:nonzero;fill:url(#linear5);" d="M 15.875 7.527344 C 15.875 7.527344 20.832031 11.429688 20.324219 14.863281 C 19.84375 18.109375 15.875 18.773438 15.875 18.773438 Z M 15.875 7.527344 "/>
<path style=" stroke:none;fill-rule:nonzero;fill:rgb(100%,100%,100%);fill-opacity:0.588235;" d="M 15.875 7.527344 C 15.875 7.527344 11.242188 11.175781 11.394531 14.523438 C 11.542969 11.273438 15.875 7.859375 15.875 7.859375 C 15.875 7.859375 20.210938 11.273438 20.355469 14.523438 C 20.511719 11.175781 15.875 7.527344 15.875 7.527344 Z M 15.214844 18.9375 L 15.214844 19.101562 C 15.214844 19.046875 15.222656 18.996094 15.234375 18.945312 C 15.226562 18.941406 15.222656 18.941406 15.214844 18.9375 Z M 16.539062 18.9375 C 16.53125 18.941406 16.523438 18.941406 16.519531 18.945312 C 16.53125 18.996094 16.539062 19.046875 16.539062 19.101562 Z M 16.539062 18.9375 "/>
<path style="fill:none;stroke-width:11.338583;stroke-linecap:round;stroke-linejoin:round;stroke:rgb(12.941177%,12.941177%,12.941177%);stroke-opacity:1;stroke-miterlimit:4;" d="M 959.908384 455.153409 C 959.908384 455.153409 660.40941 691.11514 691.11514 898.73312 C 712.609152 1045.412034 851.96593 1104.933912 921.171923 1125.483132 C 920.46333 1128.553705 919.990934 1131.860476 919.990934 1135.167247 L 919.990934 1255.155795 C 919.990934 1277.3584 937.941976 1295.073245 959.908384 1295.073245 C 982.110989 1295.073245 1000.062032 1277.3584 1000.062032 1255.155795 L 1000.062032 1135.167247 C 1000.062032 1131.860476 999.589636 1128.553705 998.881042 1125.483132 C 1068.087035 1104.933912 1207.443813 1045.412034 1228.937825 898.73312 C 1259.643556 691.11514 959.908384 455.153409 959.908384 455.153409 Z M 959.908384 455.153409 " transform="matrix(0.016538,0,0,0.016538,0,0)"/>
</g>
</svg>
